X: 53
T:Money Musk. JC.073
M:C
L:1/8
Q:100
S:Wm. Calvert MS, 1812, Leyburn, Yorks.
R:Reel
O:England
A:North Yorkshire
N:
Z:vmp.Chris Partington, May 2003
K:G
e|d>GB>G d>Gc>e|d>GB>G AB/A/ c>e|d>GB>G Bc/d/ d>g|e>cA>d B>GG::!
e/f/|g>dB>g d>gB>g|g>dc>g B>gA>f|g>dB>g d>gB>g|e>cA>c BGGf|!
g>dB>g d>gB>g|g>dc>g B>gA>f|g>dB>g d>gB>g|e>cA>d BGG:||
